src/client/app/public/PagesHolder/index/About/img/sim.svg

<svg width="299" height="289" viewBox="0 0 299 289" fill="none" xmlns="http://www.w3.org/2000/svg">
<g opacity="0.1">
<path d="M12.5954 197.473L135.406 283.638C139.276 286.353 144.38 286.543 148.441 284.123L282.061 204.5C289.773 199.905 289.893 188.778 282.281 184.017L109.695 76.0919C105.915 73.7283 101.137 73.6547 97.286 75.901L7.08072 128.521C2.90973 130.954 0.603419 135.65 1.22797 140.438L7.58839 189.201C8.02368 192.539 9.84038 195.54 12.5954 197.473Z" fill="#EFEFEF" stroke="black" stroke-linecap="round" stroke-linejoin="round"/>
<path d="M125.054 126.695C130.487 123.39 137.337 123.501 142.66 126.981L222.749 179.348C232.986 186.041 232.637 201.155 222.103 207.369L159.373 244.373C153.753 247.687 146.708 247.38 141.399 243.587L65.849 189.623C56.2153 182.742 56.7491 168.254 66.863 162.1L125.054 126.695Z" fill="url(#paint0_linear_1_684)" stroke="black"/>
<path d="M83.0933 179.905L140.69 144.378" stroke="black" stroke-linecap="round" stroke-linejoin="round"/>
<path d="M100.318 192.825L157.915 157.298" stroke="black" stroke-linecap="round" stroke-linejoin="round"/>
<path d="M117.544 205.743L175.14 170.216" stroke="black" stroke-linecap="round" stroke-linejoin="round"/>
<path d="M136.922 219.739L194.518 184.212" stroke="black" stroke-linecap="round" stroke-linejoin="round"/>
</g>
<g opacity="0.3">
<path d="M12.5954 149.406L135.406 235.572C139.276 238.287 144.38 238.477 148.441 236.057L282.061 156.434C289.773 151.838 289.893 140.711 282.281 135.951L109.695 28.0255C105.915 25.6619 101.137 25.5883 97.286 27.8346L7.08072 80.4543C2.90973 82.8874 0.603419 87.5835 1.22797 92.3717L7.58839 141.135C8.02368 144.472 9.84038 147.473 12.5954 149.406Z" fill="#EFEFEF" stroke="black" stroke-linecap="round" stroke-linejoin="round"/>
<path d="M125.054 78.629C130.487 75.3231 137.337 75.4344 142.66 78.9149L222.749 131.281C232.986 137.974 232.637 153.089 222.103 159.303L159.373 196.306C153.753 199.621 146.708 199.313 141.399 195.521L65.849 141.557C56.2153 134.675 56.7491 120.188 66.863 114.034L125.054 78.629Z" fill="url(#paint1_linear_1_684)" stroke="black"/>
<path d="M83.0933 131.838L140.69 96.3113" stroke="black" stroke-linecap="round" stroke-linejoin="round"/>
<path d="M100.318 144.758L157.915 109.231" stroke="black" stroke-linecap="round" stroke-linejoin="round"/>
<path d="M117.544 157.677L175.14 122.15" stroke="black" stroke-linecap="round" stroke-linejoin="round"/>
<path d="M136.922 171.673L194.518 136.146" stroke="black" stroke-linecap="round" stroke-linejoin="round"/>
</g>
<path opacity="0.6" d="M25.0276 114.673L136.093 192.598C139.963 195.313 145.067 195.503 149.128 193.083L268.919 121.701C276.631 117.105 276.75 105.978 269.138 101.218L113.744 4.04309C109.965 1.67944 105.186 1.60591 101.335 3.85214L20.2233 51.1675C16.0523 53.6006 13.746 58.2967 14.3705 63.0849L20.0206 106.402C20.4559 109.739 22.2726 112.74 25.0276 114.673Z" fill="#EFEFEF" stroke="black" stroke-linecap="round" stroke-linejoin="round"/>
<path d="M130.739 47.7609C133.538 46.0579 137.067 46.1152 139.809 47.9082L225.047 103.641C230.321 107.089 230.141 114.875 224.714 118.076L154.845 159.291C151.95 160.999 148.321 160.84 145.586 158.887L65.2225 101.484C60.2597 97.9391 60.5346 90.4758 65.7448 87.3058L130.739 47.7609Z" fill="url(#paint2_linear_1_684)" stroke="black"/>
<path d="M88.9423 98.3836L141.471 65.9825" stroke="black" stroke-linecap="round" stroke-linejoin="round"/>
<path d="M104.652 110.167L157.181 77.7658" stroke="black" stroke-linecap="round" stroke-linejoin="round"/>
<path d="M120.361 121.947L172.891 89.5457" stroke="black" stroke-linecap="round" stroke-linejoin="round"/>
<path d="M138.035 134.713L190.564 102.312" stroke="black" stroke-linecap="round" stroke-linejoin="round"/>
<defs>
<linearGradient id="paint0_linear_1_684" x1="-7.99949" y1="7.49931" x2="253.708" y2="96.0831" gradientUnits="userSpaceOnUse">
<stop stop-color="#53EAFF"/>
<stop offset="1" stop-color="#B9F348"/>
</linearGradient>
<linearGradient id="paint1_linear_1_684" x1="54.0001" y1="-20.4998" x2="264.434" y2="83.5585" gradientUnits="userSpaceOnUse">
<stop stop-color="#53EAFF"/>
<stop offset="1" stop-color="#B9F348"/>
</linearGradient>
<linearGradient id="paint2_linear_1_684" x1="-24.9993" y1="82.0008" x2="160.463" y2="-6.0554" gradientUnits="userSpaceOnUse">
<stop stop-color="#53EAFF"/>
<stop offset="1" stop-color="#B9F348"/>
</linearGradient>
</defs>
</svg>

<svg width="299" height="289" fill="none" xmlns="http://www.w3.org/2000/svg"><g opacity=".1" stroke="#000"><path d="m12.595 197.473 122.811 86.165a12 12 0 0 0 13.035.485l133.62-79.623c7.712-4.595 7.832-15.722.22-20.483L109.695 76.092a12 12 0 0 0-12.409-.191l-90.205 52.62a12 12 0 0 0-5.853 11.917l6.36 48.763a12 12 0 0 0 5.007 8.272Z" fill="#EFEFEF" stroke-linecap="round" stroke-linejoin="round"/><path d="M125.054 126.695a16.503 16.503 0 0 1 17.606.286l80.089 52.367c10.237 6.693 9.888 21.807-.646 28.021l-62.73 37.004a16.5 16.5 0 0 1-17.974-.786l-75.55-53.964c-9.634-6.881-9.1-21.369 1.014-27.523l58.191-35.405Z" fill="url(#a)"/><path d="m83.093 179.905 57.597-35.527M100.318 192.825l57.597-35.527M117.544 205.743l57.596-35.527M136.922 219.739l57.596-35.527" stroke-linecap="round" stroke-linejoin="round"/></g><g opacity=".3" stroke="#000"><path d="m12.595 149.406 122.811 86.166a12 12 0 0 0 13.035.485l133.62-79.623c7.712-4.596 7.832-15.723.22-20.483L109.695 28.026a12 12 0 0 0-12.409-.191L7.081 80.455a12 12 0 0 0-5.853 11.917l6.36 48.763a12 12 0 0 0 5.007 8.271Z" fill="#EFEFEF" stroke-linecap="round" stroke-linejoin="round"/><path d="M125.054 78.629a16.5 16.5 0 0 1 17.606.286l80.089 52.366c10.237 6.693 9.888 21.808-.646 28.022l-62.73 37.003a16.5 16.5 0 0 1-17.974-.785l-75.55-53.964c-9.634-6.882-9.1-21.369 1.014-27.523l58.191-35.405Z" fill="url(#b)"/><path d="m83.093 131.838 57.597-35.527M100.318 144.758l57.597-35.527M117.544 157.677l57.596-35.527M136.922 171.673l57.596-35.527" stroke-linecap="round" stroke-linejoin="round"/></g><path opacity=".6" d="m25.028 114.673 111.065 77.925a12 12 0 0 0 13.035.485l119.791-71.382c7.712-4.596 7.831-15.723.219-20.483L113.744 4.043a12 12 0 0 0-12.409-.19L20.223 51.166a12 12 0 0 0-5.852 11.918l5.65 43.317a12 12 0 0 0 5.007 8.271Z" fill="#EFEFEF" stroke="#000" stroke-linecap="round" stroke-linejoin="round"/><path d="M130.739 47.76a8.5 8.5 0 0 1 9.07.148l85.238 55.733c5.274 3.448 5.094 11.234-.333 14.435l-69.869 41.215a8.5 8.5 0 0 1-9.259-.404l-80.364-57.403c-4.962-3.545-4.687-11.008.523-14.178l64.994-39.545Z" fill="url(#c)" stroke="#000"/><path d="m88.942 98.384 52.529-32.401M104.652 110.167l52.529-32.401M120.361 121.947l52.53-32.401M138.035 134.713l52.529-32.401" stroke="#000" stroke-linecap="round" stroke-linejoin="round"/><defs><linearGradient id="a" x1="-7.999" y1="7.499" x2="253.708" y2="96.083" gradientUnits="userSpaceOnUse"><stop stop-color="#53EAFF"/><stop offset="1" stop-color="#B9F348"/></linearGradient><linearGradient id="b" x1="54" y1="-20.5" x2="264.434" y2="83.558" gradientUnits="userSpaceOnUse"><stop stop-color="#53EAFF"/><stop offset="1" stop-color="#B9F348"/></linearGradient><linearGradient id="c" x1="-24.999" y1="82.001" x2="160.463" y2="-6.055" gradientUnits="userSpaceOnUse"><stop stop-color="#53EAFF"/><stop offset="1" stop-color="#B9F348"/></linearGradient></defs></svg>
